X:19
T:Eagle's Whistle, The
M:3/4
L:1/8
S:Best of J&A McKenna Trk 2
R:Slow Waltz / Air
Z:Ed Wosika
K:G
G/A/ |  "G"B>e/2 d(3B/c/B/ "D7"(3A/B/A/ (G/A/)|
 "G"B>e/2 d (3B/c/B/ "D7"(3A/B/A/ G/B/)|
"Am"A3 (3B/c/B/ (3A/B/A/ G|  A3 (3B/c/B/ (3A/B/A/ G/d/|
"G"B>e/2 d(3B/c/B/ "D7"(3A/B/A/ (G/A/)|  "G"BA/B/ dB "D7"AB/A/|
"G"G2 GB "D7"AB/A/|  "G"G3 G2 :|
d/B/| "G"ee/^d/ =dd/e/gd|  ee/^d/ =dBAG|
"Am"A2  A(3B/c/B/  3A/B/A/  G|  A2 A(3B/c/B/ AB/d/|
"G"ee/^d/ =degd|  ee/^d/ =dB/D/  "D7"AB/D/|
"G"G2 GB/D/ "D7"A~B| "G"G3 G2 :|]
